!!!!SEGMENT: Jac3002-Hellas_pourquoy--La_Couronne.krn
!!!id: Jac3002
!!!AGN: Chanson
!!!SCT: Bernstein (1984)
!!!voices: 3
!!!COM: Jacotin Frontin?
!!!OTL: Hellas, pourquoy
**kern	**kern	**kern
*part3	*part2	*part1
*staff3	*staff2	*staff1
*I"Bassus	*I"Tenor	*I"Superius
*I'B	*I'T	*I'S
*clefF4	*clefGv2	*clefGv2
*k[]	*k[]	*k[]
*C:	*C:	*C:
*M2/1	*M2/1	*M2/1
*met(C|)	*met(C|)	*met(C|)
=1	=1	=1
0r	2r	2r
.	2A	2A
.	1F	2A
.	.	[2c
=2	=2	=2
0r	1E	2c]
.	.	4B
.	.	4A
.	[1D	1B
=3	=3	=3
1r	1D]	1A
2r	[1A	2.D
2D	.	.
.	.	4E
=4	=4	=4
2D	1A]	4F
.	.	4G
1F	.	1A
.	1c	.
4E	.	4G
4D	.	4F
=5	=5	=5
1E	2c	2.G
.	2c	.
.	.	4A
2.D	[1d	2B
.	.	[2A
4E	.	.
=6	=6	=6
4F	2d]	4A]
4G	.	4B
1A	4c	4c
.	4B	4d
.	[1c	2e
4G	.	2f
4F	.	.
=7	=7	=7
2G	2c]	2.d
2G	2B	.
.	.	4e
2A	[1A	2f
[2AA	.	[2e
=8	=8	=8
4AA]	2A]	4e]
4BB	.	4d
2C	2G	4c
.	.	4B
2D	2F	2A
2BB	4E	[2d
.	4D	.
=9	=9	=9
1AA	2E	2d]
.	2E	2c#i
2r	1D	2d
[2A	.	[2f
=10	=10	=10
4A]	2.A	4f]
4G	.	4e
4F	.	4d
4E	4G	4c
4D	4F	2d
4C	4E	.
4BB	2A	[2e
4AA	.	.
=11	=11	=11
2BB	4G	4e]
.	4F	4d
2BB	4E	1d
.	4D	.
1AA	1E	.
.	.	2c#i
=12	=12	=12
0D;	0D;	0d;
=13	=13	=13
1F	0r	0r
2F	.	.
2G	.	.
=14	=14	=14
1.A	0r	0r
2G	.	.
=15	=15	=15
1A	1.F	1r
2r	.	1c
2E	2G	.
=16	=16	=16
2F	1.A	2c
2F	.	2d
1E	.	[1e
.	2G	.
=17	=17	=17
1F	1A	2e]
.	.	2d
1E	2r	1e
.	2B	.
=18	=18	=18
2AA	1c	2r
2A	.	2.c
2G	1d	.
.	.	4B
2G	.	[2B
=19	=19	=19
2.E	1.e	4B]
.	.	4A
.	.	4G
4F	.	4F
2G	.	2E
2D	2d	[2B
=20	=20	=20
1F	2c	4B]
.	.	4A
.	4B	1A
.	4A	.
1E	1B	.
.	.	2G
=21	=21	=21
2r	0A	2F
2A	.	2.D
2A	.	.
.	.	4E
2A	.	4F
.	.	4G
=22	=22	=22
1.G	1r	1E
.	1d	1D
2F	.	.
=23	=23	=23
2G	2d	1r
2D	2d	.
[1F	[1c	1A
=24	=24	=24
2F]	2c]	2A
2F	2B	2A
2C	1c	[1G
2E	.	.
=25	=25	=25
1D	2r	2G]
.	2d	2F
1C	1e	1G
=26	=26	=26
2r	1f	2r
2F	.	2A
2G	[1e	2B
[2A	.	[2c
=27	=27	=27
4A]	2e]	4c]
4G	.	4B
4F	2d	4A
4E	.	4G
2F	2c	4A
.	.	4G
2D	[2d	4F
.	.	4E
=28	=28	=28
2A	4d]	2D
.	4A	.
2AA	2c	2A
1E	1B	4G
.	.	4A
.	.	4B
.	.	4G
=29	=29	=29
2r	1.A	4c
.	.	4d
2.AA	.	4e
.	.	4c
.	.	2f
4BB	.	.
2C	2G	[2e
=30	=30	=30
2D	2F	4e]
.	.	4d
2BB	4E	1d
.	4D	.
1AA	2E	.
.	2E	2c#i
=31	=31	=31
2r	0D	1d
2.A	.	.
.	.	1r
4G	.	.
4F	.	.
4E	.	.
=32	=32	=32
2.F	0r	0A
4E	.	.
4D	.	.
4C	.	.
2F	.	.
=33	=33	=33
2F	0r	1c
4E	.	.
4D	.	.
2E	.	2c
2E	.	2c
=34	=34	=34
2.D	0A	2d
.	.	2.D
4E	.	.
4F	.	.
4G	.	4E
2A	.	4F
.	.	4G
=35	=35	=35
2.AA	1c	2A
.	.	2.E
4BB	.	.
4C	2c	.
4D	.	4F
2E	2c	4G
.	.	4A
=36	=36	=36
2D	1.d	2B
1F	.	2.A
.	.	4B
4E	4c	4c
4D	4B	4d
=37	=37	=37
2C	1.c	2e
2D	.	2.A
1E	.	.
.	.	8G#iL
.	.	8F#iJ
.	2B	2G#i
=38	=38	=38
2.AA	1.A	4A
.	.	4B
.	.	4c
4BB	.	4d
4C	.	4e
4D	.	4f
4E	2G	[2e
4C	.	.
=39	=39	=39
1D	2F	4e]
.	.	4d
.	4E	1d
.	4D	.
1AA	2E	.
.	2E	2c#i
=40	=40	=40
00Dl	00Dl	00dl
==	==	==
*-	*-	*-
!!!system-decoration: [*]
!!!RDF**kern: i = editorial accidental
!!!RDF**kern: l = terminal long
!!!ENC: Benjamin Ory
!!!END: 2023/11/7
!!!EED: Benjamin Ory
!!!EEV: 2023/11/07
!!!YEC: Copyright 2023 Benjamin Ory, All Rights Reserved
!!!ONB: Translated from MusicXML on 2023/11/07
